X: 1
T: String Quartet in C Major opus 33 no 3 mvt 1
C: Franz Joseph Haydn
%%abc-version 2.0
%%abcx-abcm2ps-target-version 5.9.1 (29 Sep 2008)
%%abc-creator hum2abc beta
%%abcx-conversion-date 2021/02/14 14:38:19
%%abc-copyright Copyright (c) 1994, 2000 Center for Computer Assisted Research in the Humanities
%%abc-edited-by Frances Bennion
%%abcx-initial-encoding-date 1997/04/15
%%gracespace 0 6 6
%%humdrum-veritas 1998021016
%%humdrum-veritas-data 3645705756
%%linebreak <none>
%%barnumbers 0
L: 1/8
M: 4/4
N: Derived from op33n3-01.krn
Q: "Allegro moderato"
%%staves [1 2 3 4]
V: 1
V: 2
V: 3 clef=alto
V: 4 clef=bass
K: C
[V:1]z8 [I:setbarnb2] |
[V:2]cc cc cc cc |
[V:3]EE EE EE EE |
[V:4]z8 |
[V:1]g8 |
[V:2]cc cc cc cc |
[V:3]EE EE EE EE |
[V:4]z8 |
[V:1]g4 g4 |
[V:2]cc cc cc cc |
[V:3]EE EE EE EE |
[V:4]z8 |
[V:1]g4- ge/g/ fd/B/ |
[V:2]c2 G4 Bd |
[V:3]E2 E4 F2 |
[V:4]z2 C,,2 E,,2 G,,2 |
[V:1]B/c/e/c/ G3 E/G/ FD/B,/ |
[V:2]c2 E4 F2 |
[V:3]E2 G,4 B,D |
[V:4]C,2 C,2 E,2 G,2 |
[V:1]B,/C/E/C/ G,z4 z |
[V:2]E2 z6 |
[V:3]C2 z6 |
[V:4]C2 z6 |
[V:1]z8 |
[V:2]dd dd dd dd |
[V:3]FF FF FF FF |
[V:4]z8 |
[V:1]a8 |
[V:2]dd dd dd dd |
[V:3]FF FF FF FF |
[V:4]z8 |
[V:1]a4 a4 |
[V:2]dd dd dd dd |
[V:3]FF FF FF FF |
[V:4]z8 |
[V:1]a4- af/a/ ge/^c/ |
[V:2]d2 A4 ^ce |
[V:3]F2 F4 G2 |
[V:4]z2 D,,2 F,,2 A,,2 |
[V:1]^c/d/f/d/ A3 F/A/ GE/^C/ |
[V:2]d2 F4 G2 |
[V:3]F2 A,4 ^CE |
[V:4]D,2 D,2 F,2 A,2 |
[V:1]^C/D/F/D/ A,z4 z |
[V:2]F2 z6 |
[V:3]D2 z6 |
[V:4]D2 z6 |
[V:1]z8 |
[V:2]DD DD DD DD |
[V:3]_B,B, B,B, B,B, B,B, |
[V:4]z8 |
[V:1]g4- ga/_b/ a/g/f/e/ |
[V:2]DD DD DD DD |
[V:3]_B,B, B,B, B,B, B,B, |
[V:4]z8 |
[V:1]d4 ^c2 d2 |
[V:2]E6 F2 |
[V:3]A,8 |
[V:4]z8 |
[V:1]c4 B2 c2 |
[V:2]F6 E2 |
[V:3]G,6 A,2 |
[V:4]z8 |
[V:1]d3 f/a/ c2 B2 |
[V:2]A2 >F2 E2 D2 |
[V:3]F,4 G,2 G,2 |
[V:4]z8 |
[V:1]c8- |
[V:2]E4- EG FE |
[V:3]C4 z4 |
[V:4]C,,E,, G,,B,, C,E, D,C, |
[V:1]c3 d/c/ Bc ^cd |
[V:2]F4 z4 |
[V:3]z4 DE EF |
[V:4]D,4 z4 |
[V:1]d8- |
[V:2]F4- FD EF |
[V:3]FD2 <B,2 B, CD |
[V:4]G,,B,, D,E, F,A, G,F, |
[V:1]d3 e/d/ cB cd |
[V:2]G4 z4 |
[V:3]E4 zD EF |
[V:4]E,4 z4 |
[V:1]e4- ee fg |
[V:2]z4 e4 |
[V:3]G6 cB |
[V:4]C,E, G,B, CB, A,G, |
[V:1]a8 |
[V:2]f4 d2 f2- |
[V:3]A4- AG FE |
[V:4]F,A, ^CD FE D=C |
[V:1]g4- ga/b/ c'b |
[V:2]f4 ed cc |
[V:3]DE FD C4 |
[V:4]B,C DB, CB, A,G, |
[V:1]ba ag gf fe |
[V:2]c8 |
[V:3]C8 |
[V:4]G,F, F,E, E,D, D,C, |
[V:1]g3 f/e/ d2 z2 |
[V:2]e3 d/c/ B2 z2 |
[V:3]G,6 z2 |
[V:4]G,,6 z2 |
[V:1]z8 |
[V:2]dd dd dd dd |
[V:3]BB BB BB BB |
[V:4]z8 |
[V:1]^c'/d'/b/g/ dz b/=c'/a/^f/ dz |
[V:2]d8 |
[V:3]B2 z2 A2 z2 |
[V:4]z8 |
[V:1]^f/g/b/g/ dz g/f/a/f/ dz |
[V:2]d4 d4 |
[V:3]G2 z2 ^F2 z2 |
[V:4]z8 |
[V:1]zd ^c'd' zd b=c' |
[V:2]d8 |
[V:3]G4 ^F4 |
[V:4]_B,4 A,4 |
[V:1]zd a_b zd ^ga |
[V:2]d4 d4 |
[V:3]G4 ^F4 |
[V:4]G,4 D4 |
[V:1]^f/g/_b/g/ dz d'2 d'2 |
[V:2][D2_B2] z2 _b2 b2 |
[V:3]G2 z2 ^F/G/_B/G/ Dz |
[V:4]G,4 z4 |
[V:1]g/^f/a/f/ dz c'2 c'2 |
[V:2][D2A2] z2 a2 a2 |
[V:3]^F2 z2 G/F/A/F/ Dz |
[V:4]D,4 z4 |
[V:1]^F/G/_B/G/ Dz d2 d2 |
[V:2][D2_B2] z6 |
[V:3]_B2 z2 B2 B2 |
[V:4]G,2 z2 ^F,/G,/_B,/G,/ D,z |
[V:1]G/^F/A/F/ Dz c2 c2 |
[V:2][^F2A2] z6 |
[V:3]D2 z2 A2 A2 |
[V:4]D,,2 z2 G,/^F,/A,/F,/ D,z |
[V:1]g4 g2 g2 |
[V:2][D4B4] B2 B2 |
[V:3]G,4 z4 |
[V:4]^F,/G,/F,/G,/ G,,z4 z |
[V:1]c'2 >b2 az ^f/g/a/g/ |
[V:2]A2 >B2 cz cB |
[V:3]d4- dz d2 |
[V:4]^F2 >G2 A2 z2 |
[V:1]c'2 >b2 az ^f/g/a/g/ |
[V:2]A2 >B2 cz cB |
[V:3]d4- dz d2 |
[V:4]^F2 >G2 A2 z2 |
[V:1]^f/g/a/g/ f/g/a/g/ f/g/a/g/ f/g/a/g/ |
[V:2]cB cB cB cB |
[V:3]d2 d2 d2 d2 |
[V:4]z8 |
[V:1]e'2 >d'2 c'2 b2 |
[V:2]c'2 >b2 a2 g2 |
[V:3]A6 D2 |
[V:4]^F,6 G,2 |
[V:1]a2 >^g2 =g^f ed |
[V:2]e2 z4 c2 |
[V:3]E2 z4 ^F2 |
[V:4]C,4 z2 D,2 |
[V:1]g2 z^F GA Bc |
[V:2]B2 z6 |
[V:3]G2 z6 |
[V:4]G,,2 z6 |
[V:1]d4 d2 d2 |
[V:2]GD GD GD GD |
[V:3]z8 |
[V:4]z8 |
[V:1]dc cB Bz3 |
[V:2]BD AD GD GD |
[V:3]z8 |
[V:4]z8 |
[V:1]cB BA A2 z2 |
[V:2]AD GD ^FD FD |
[V:3]z8 |
[V:4]z8 |
[V:1]G2 G2 A2 A2 |
[V:2]G^F FE E2 E2 |
[V:3]ED DC C2 C2 |
[V:4]z8 |
[V:1]^F2 F2 GA Bc |
[V:2]D2 D2 D2 D2 |
[V:3]A,2 A,2 G,2 G,2 |
[V:4]D,C, C,B,, B,,2 B,,2 |
[V:1]d4 d2 d2 |
[V:2]GD GD GD GD |
[V:3]z8 |
[V:4]z8 |
[V:1]dc cB B2 z2 |
[V:2]BD AD GD GD |
[V:3]z8 |
[V:4]z8 |
[V:1]cB BA A2 z2 |
[V:2]AD GD ^FD FD |
[V:3]z8 |
[V:4]z8 |
[V:1]g2 g2 a2 a2 |
[V:2]G^F FE E2 E2 |
[V:3]ED DC C2 C2 |
[V:4]z8 |
[V:1]^f2 f2 g2 g2 |
[V:2]D2 D2 D2 D2 |
[V:3]A,2 A,2 G,2 G,2 |
[V:4]D,C, C,B,, B,,2 B,,2 |
[V:1]a2 a2 b2 bd' |
[V:2]z4 d2 d2 |
[V:3]^FD FD GD GD |
[V:4]z8 |
[V:1]d'^c' =c'b b4 |
[V:2]^f2 f2 g2 g2 |
[V:3]AD AD GD GD |
[V:4]z8 |
[V:1]a2 >^g2 =g^f ed |
[V:2]e2 z4 c2 |
[V:3]E2 z4 ^F2 |
[V:4]C4 z2 D2 |
[V:1]g8- |
[V:2]g2 >^f2 =fe dc |
[V:3]G2 z6 |
[V:4]G,2 z6 |
[V:1]g8- |
[V:2]B6 c2 |
[V:3]G2 >^F2 =FE DC |
[V:4]z8 |
[V:1]g8- |
[V:2]d6 e2 |
[V:3]B,6 C2 |
[V:4]G,2 >^F,2 =F,E, D,C, |
[V:1]g2 z6 |
[V:2]ff ff ff ff |
[V:3]DD DD DD DD |
[V:4]B,,2 z6 |
[V:1]z8 |
[V:2]ee ee ee ee |
[V:3]GG GG GG GG |
[V:4]_B,B, B,B, B,B, B,B, |
[V:1]c'8 |
[V:2]ee ee ee ee |
[V:3]GG GG GG GG |
[V:4]_B,B, B,B, B,B, B,B, |
[V:1]c'4 c'4 |
[V:2]ee ee ee ee |
[V:3]GG GG GG GG |
[V:4]_B,B, B,B, B,B, B,B, |
[V:1]c'4- c'a/c'/ _bg/e/ |
[V:2]f2 A4 _B2 |
[V:3]F2 C4 EG |
[V:4]A,2 F,,2 A,,2 C,2 |
[V:1]g/f/a/f/ c3 A/c/ _BG/E/ |
[V:2]A2 C4 EG |
[V:3]F2 A,4 _B,2 |
[V:4]F,2 F,2 A,2 C2 |
[V:1]E/F/A/F/ C2 z4 |
[V:2]FA, A,A, A,A, A,A, |
[V:3]A,C CC CC CC |
[V:4]F,2 z6 |
[V:1]f4 f2 f2 |
[V:2]c4 d4 |
[V:3]A4 _B4 |
[V:4]zF, _EC zF, D_B, |
[V:1]a4 _b4 |
[V:2]_e2 >c2 d4 |
[V:3]c4 _B4 |
[V:4]z_E, CA, zD, _B,F, |
[V:1]^f4 g2 g2 |
[V:2]_e4 d4 |
[V:3]c4 _B4 |
[V:4]zA, _EC z_B, DG |
[V:1]c'4 _b4 |
[V:2]d4 d2 d2 |
[V:3]A4 G4 |
[V:4]z^F, DA, zG, D_B, |
[V:1]_b4 a4 |
[V:2]^c4 d4- |
[V:3]G4 ^F4 |
[V:4]zG, E^C z^F, DA, |
[V:1]^g4 a2 a2 |
[V:2]d4 c4 |
[V:3]E8- |
[V:4]zE, DB, zE, CA, |
[V:1]d4 c2 c2 |
[V:2]B4 A2 A2 |
[V:3]E4 ^D4 |
[V:4]zE, B,^G, z^D, CA, |
[V:1]B2 >E2 AB cd |
[V:2]^G2 z6 |
[V:3]E2 z6 |
[V:4]E,2 z6 |
[V:1]e4 e2 e2 |
[V:2]AE AE AE AE |
[V:3]z8 |
[V:4]z8 |
[V:1]ed dc c2 z2 |
[V:2]cE BE AE AE |
[V:3]z8 |
[V:4]z8 |
[V:1]dc cB B2 z2 |
[V:2]^GE AE G2 z2 |
[V:3]z2 >E,2 B,C DE |
[V:4]z2 >E,2 ^G,A, B,C |
[V:1]B4 B2 B2 |
[V:2]^G4 G2 G2 |
[V:3]F4 F2 F2 |
[V:4]D4 D2 D2 |
[V:1]B2 c2 d2 z2 |
[V:2]^G2 A2 B2 z2 |
[V:3]FE ED D2 z2 |
[V:4]DC CB, B,2 z2 |
[V:1]d2 e2 f2 z2 |
[V:2]B2 c2 d2 z2 |
[V:3]DC CB, B,2 z2 |
[V:4]B,A, A,^G, G,2 z2 |
[V:1]^g/a/c'/a/ ff ^c/d/f/d/ BB |
[V:2]A2 F2 D2 B,2 |
[V:3]z8 |
[V:4]z8 |
[V:1]A/^G/B/G/ F4 ED |
[V:2]^G,2 D4 CB, |
[V:3]z2 B,4 E,2 |
[V:4]z2 ^G,4 G,2 |
[V:1]C2 A2 >^G2 =GF |
[V:2]A,8 |
[V:3]E,4 z4 |
[V:4]A,4 C,4 |
[V:1]F4 z4 |
[V:2]D2 >^C2 =CB, A,^G, |
[V:3]F4 ED CB, |
[V:4]D,4 E,4 |
[V:1]^g/a/c'/a/ ff ^c/d/f/d/ BB |
[V:2]A2 F2 D2 B,2 |
[V:3]A2 F2 D2 B,2 |
[V:4]A,2 F,2 D,2 B,,2 |
[V:1]G8- |
[V:2]FG, FG, FG, FG, |
[V:3]DB, DB, DB, DB, |
[V:4]G,,4 z4 |
[V:1]G8- |
[V:2]_EG, EG, EG, EG, |
[V:3]C_E CE CE CE |
[V:4]G,,4 z4 |
[V:1]G8- |
[V:2]DG, DG, DG, DG, |
[V:3]C4 B,2 D2 |
[V:4]G,,4 z4 |
[V:1]G4 G2 G2 |
[V:2]G,2 z6 |
[V:3]_E8- |
[V:4]C,8- |
[V:1]G8 |
[V:2]_A4 A2 A2 |
[V:3]E6 c2 |
[V:4]C,8 |
[V:1]F8- |
[V:2]_A8 |
[V:3]B4 B2 B2 |
[V:4]D,8 |
[V:1]F4 _E2 c2 |
[V:2]G8 |
[V:3]c6 _E2 |
[V:4]C4 C2 C2 |
[V:1]c4 B4 |
[V:2]d4 d2 d2 |
[V:3]D8 |
[V:4]G,8 |
[V:1]e4 e2 e2 |
[V:2]^c8 |
[V:3]_B,8 |
[V:4]G,8 |
[V:1]e4 d4 |
[V:2]a4 a2 a2 |
[V:3]A,4 D4 |
[V:4]F,8 |
[V:1]c'4 c'2 c'2 |
[V:2]a4 a2 a2 |
[V:3]^D8 |
[V:4]F,8 |
[V:1]c'8 |
[V:2]a8 |
[V:3]E8 |
[V:4]E,8 |
[V:1]b8 |
[V:2]^g8 |
[V:3]E8 |
[V:4]E,8 |
[V:1]z8 |
[V:2]BB BB BB BB |
[V:3]GG GG GG GG |
[V:4]z8 |
[V:1]zB bg zB a^f |
[V:2]B8 |
[V:3]G2 z2 ^F2 z2 |
[V:4]z8 |
[V:1]zB ge zB ^f^d |
[V:2]B4 B4 |
[V:3]E2 z2 ^D2 z2 |
[V:4]z8 |
[V:1]zB ^ab zB ^g=a |
[V:2]B8 |
[V:3]E4 ^D4 |
[V:4]G,4 ^F,4 |
[V:1]zB ^fg zB ^ef |
[V:2]B4 B4 |
[V:3]E4 ^D4 |
[V:4]E,4 B,4 |
[V:1]c'2 >b2 az ^f/g/a/g/ |
[V:2]^d2 >e2 ^fz3 |
[V:3]A2 >B2 cz3 |
[V:4]^F2 >G2 Az3 |
[V:1]c'2 >b2 az ^f/g/a/g/ |
[V:2]^d2 >e2 ^fz3 |
[V:3]A2 >B2 cz3 |
[V:4]^F2 >G2 Az3 |
[V:1]^f/g/a/g/ f/g/a/g/ f/g/a/g/ f/g/a/g/ |
[V:2]z8 |
[V:3]z8 |
[V:4]z8 |
[V:1]c'2 >b2 az g2- |
[V:2]^d2 >e2 ^f2 e2- |
[V:3]A2 >B2 c2 ^A2 |
[V:4]F,2 >G,2 A,2 ^A,2 |
[V:1]g2 b2 >a2 g^f |
[V:2]e2 g2 >^f2 e^d |
[V:3]B4 B,4 |
[V:4]B,4 B,,4 |
[V:1]e2 z6 |
[V:2]eB BB BB BB |
[V:3]EE EE EE EE |
[V:4]z8 |
[V:1]g8 |
[V:2]BB BB BB BB |
[V:3]EE EE EE EE |
[V:4]z8 |
[V:1]g4 g4 |
[V:2]BB BB BB BB |
[V:3]DD DD DD DD |
[V:4]F8 |
[V:1]g4- ge/g/ fd/B/ |
[V:2]c2 G4 Bd |
[V:3]E2 E4 F2 |
[V:4]E2 C,,2 E,,2 G,,2 |
[V:1]B/c/e/c/ G3 E/G/ FD/B,/ |
[V:2]c2 E4 F2 |
[V:3]E2 G,4 B,D |
[V:4]C,2 C,2 E,2 G,2 |
[V:1]B,/C/E/C/ G,z4 z |
[V:2]E2 z6 |
[V:3]C2 z6 |
[V:4]C2 z6 |
[V:1]z8 |
[V:2]^cc cc cc cc |
[V:3]EE EE EE EE |
[V:4]z8 |
[V:1]a8 |
[V:2]^cc cc cc cc |
[V:3]EE EE EE EE |
[V:4]z8 |
[V:1]a4 a4 |
[V:2]^cc cc cc cc |
[V:3]EE EE EE EE |
[V:4]z8 |
[V:1]a4- af/a/ ge/^c/ |
[V:2]d2 A4 ^ce |
[V:3]F2 F4 G2 |
[V:4]z2 D,,2 F,,2 A,,2 |
[V:1]^c/d/f/d/ A3 F/A/ GE/^C/ |
[V:2]d2 F4 G2 |
[V:3]F2 A,4 ^CE |
[V:4]D,2 D,2 F,2 A,2 |
[V:1]^C/D/F/D/ A,z4 z |
[V:2]F2 z6 |
[V:3]D2 z6 |
[V:4]D2 z6 |
[V:1]z8 |
[V:2]DD DD DD DD |
[V:3]_B,B, B,B, B,B, B,B, |
[V:4]z8 |
[V:1]g4- ga/_b/ a/g/f/e/ |
[V:2]DD DD DD DD |
[V:3]_B,B, B,B, B,B, B,B, |
[V:4]z8 |
[V:1]d4 ^c2 d2 |
[V:2]E6 F2 |
[V:3]A,8 |
[V:4]z8 |
[V:1]c4 B2 c2 |
[V:2]F6 E2 |
[V:3]G,8- |
[V:4]z8 |
[V:1]d2 >e2 f2 ec |
[V:2]B,6 C2 |
[V:3]G,8 |
[V:4]z8 |
[V:1]g8- |
[V:2]G,G Bd zG Bd |
[V:3]G,4 z4 |
[V:4]G4 F4 |
[V:1]g8- |
[V:2]zG ce zG df |
[V:3]z8 |
[V:4]E4 B,4 |
[V:1]g4 gg bd' |
[V:2]zG eg g2 g2 |
[V:3]z4 B4 |
[V:4]C4 F,4 |
[V:1]zg c'e' zg d'f' |
[V:2]g8- |
[V:3]c4 d4 |
[V:4]E,4 B,,4 |
[V:1]f'/e'/g'/e'/ c'z4 z |
[V:2]g2 z2 e2 e2 |
[V:3]e2 z2 c2 c2 |
[V:4]C,4 z4 |
[V:1]e'/d'/f'/d'/ gz4 z |
[V:2]f2 z2 f2 f2 |
[V:3]d2 z2 d2 d2 |
[V:4]G,,4 z4 |
[V:1]f'/e'/g'/e'/ c'z4 z |
[V:2]e2 z2 e2 e2 |
[V:3]c2 z2 c2 c2 |
[V:4]C2 z2 B,,/C,/E,/C,/ G,,2 |
[V:1]e'/d'/f'/d'/ gz4 z |
[V:2]f2 z2 f2 f2 |
[V:3]d2 z2 d2 d2 |
[V:4]z4 C/B,/D/B,/ G,2 |
[V:1]b/c'/e'/c'/ gz f/e/g/e/ cz |
[V:2]g2 z6 |
[V:3]c2 z6 |
[V:4]E,2 z6 |
[V:1]^g/a/c'/a/ fz e/f/a/f/ dz |
[V:2]a2 z6 |
[V:3]c2 z6 |
[V:4]F,2 z6 |
[V:1]z6 ag |
[V:2]z8 |
[V:3]z8 |
[V:4]z8 |
[V:1]gf fe ed fe |
[V:2]d4 z4 |
[V:3]A4 z4 |
[V:4]F,4 z4 |
[V:1]ed d^c =cB AG |
[V:2]F8 |
[V:3]D8 |
[V:4]G,8 |
[V:1]c2 zG cd ef |
[V:2]E2 z6 |
[V:3]C2 z6 |
[V:4]C,2 z6 |
[V:1]g4 g2 g2 |
[V:2]cG cG cG cG |
[V:3]z8 |
[V:4]z8 |
[V:1]gf fe e2 z2 |
[V:2]eG dG cG cG |
[V:3]z8 |
[V:4]z8 |
[V:1]fe ed d2 z2 |
[V:2]dG cG BG BG |
[V:3]z8 |
[V:4]z8 |
[V:1]c2 c2 d2 d2 |
[V:2]AG GF F2 F2 |
[V:3]cB BA A2 A2 |
[V:4]z8 |
[V:1]B2 B2 cd ef |
[V:2]D2 D2 C2 C2 |
[V:3]G2 G2 G2 G2 |
[V:4]G,F, F,E, E,2 E,2 |
[V:1]g4 g2 g2 |
[V:2]cG cG cG cG |
[V:3]z8 |
[V:4]z8 |
[V:1]gf fe e2 z2 |
[V:2]eG dG c2 z2 |
[V:3]z4 EF FG |
[V:4]z4 CD DE |
[V:1]fe ed d2 z2 |
[V:2]dc cB B2 z2 |
[V:3]z4 B,C CD |
[V:4]z4 G,A, A,B, |
[V:1]c2 c4 d2- |
[V:2]GF FE AG GF |
[V:3]ED DC FE ED |
[V:4]C2 z6 |
[V:1]d2 e4 f2 |
[V:2]BA AG cB BA |
[V:3]GF FE AG GF |
[V:4]z8 |
[V:1]f4 ed dc |
[V:2]Bc cd EF FG |
[V:3]G4 GF FE |
[V:4]G,A, A,B, CD DE |
[V:1]d2 >^c2 =cB AG |
[V:2]A2 z4 F2 |
[V:3]F2 z4 D2 |
[V:4]F,2 z4 G,2 |
[V:1]c8- |
[V:2]c2 >B2 _BA GF |
[V:3]E2 z6 |
[V:4]C,2 z6 |
[V:1]c8- |
[V:2]E6 F2 |
[V:3]C2 >B,2 _B,A, G,F, |
[V:4]z8 |
[V:1]c8- |
[V:2]G6 A2 |
[V:3]E,6 F,2 |
[V:4]C,2 >B,,2 _B,,A,, G,,F,, |
[V:1]c2 z6 |
[V:2]_BB BB BB BB |
[V:3]G,G GG GG GG |
[V:4]E,,2 z6 |
[V:1]c8- |
[V:2]E4 EF FG |
[V:3]E2 z6 |
[V:4]C,4 C,D, D,E, |
[V:1]c8 |
[V:2]G4 GA A_B |
[V:3]E4 EF FG |
[V:4]E,2 z6 |
[V:1]c4 ^cd de |
[V:2]_B4 BG A2 |
[V:3]G6 F2 |
[V:4]E6 D2 |
[V:1]g2 g2 ^f2 f2 |
[V:2]A2 A2 A2 A2 |
[V:3]E2 E2 D2 D2 |
[V:4]^C2 C2 D2 D2 |
[V:1]f2 f2 e2 e2 |
[V:2]G2 G2 G2 G2 |
[V:3]D2 D2 E2 E2 |
[V:4]B,2 B,2 C2 C2 |
[V:1]a2 >^g2 =g^f =fe |
[V:2]D4 z4 |
[V:3]F4 z4 |
[V:4]F,4 z4 |
[V:1]_ed ^cd Aa fd |
[V:2]z8 |
[V:3]z8 |
[V:4]z8 |
[V:1]c2 e2 g2 c'2 |
[V:2]cc cc cc cc |
[V:3]EE EE EE EE |
[V:4]G,G, G,G, G,G, G,G, |
[V:1]e'2 z2 g'2 z2 |
[V:2]cc cc cc cc |
[V:3]EE EE EE EE |
[V:4]G,G, G,G, G,G, G,G, |
[V:1]d8 |
[V:2]BB BB BB BB |
[V:3]FF FF FF FF |
[V:4]G,G, G,G, G,G, G,G, |
[V:1]c4 z4 |
[V:2]c8 |
[V:3]^FF FF FF FF |
[V:4]A,A, A,A, A,A, A,A, |
[V:1]z8 |
[V:2]c4 c4 |
[V:3]^FF FF FF FF |
[V:4]A,A, A,A, A,A, A,A, |
[V:1]g8 |
[V:2]cc cc cc cc |
[V:3]GE EE EE EE |
[V:4]G,2 z6 |
[V:1]g4 g4 |
[V:2]cc cc cc cc |
[V:3]EE EE EE EE |
[V:4]z8 |
[V:1]g4- ge/g/ fd/B/ |
[V:2]c2 G4 Bd |
[V:3]E2 E4 F2 |
[V:4]zG,, C,E, G,2 G,2 |
[V:1]B/c/e/c/ G3 E/G/ FD/B,/ |
[V:2]c2 [G,4E4] [B2F2G,2] |
[V:3]E2 C4 B,D |
[V:4]zG,, C,E, G,2 G,,2 |
[V:1]C2 z6 |]
[V:2][G,2E2c2] z6 |]
[V:3]C2 z6 |]
[V:4]C,,2 z6 |]

